app/dist/common/images/enterprise-bancorp.svg

<svg height="18" viewBox="0 0 18 18" width="18" xmlns="http://www.w3.org/2000/svg"><path d="m0 0h18v18h-18z" fill="#00543a"/><path d="m8.12 7 .25-1h-1.12c-1.13 0-1.54.73-1.63 1-.12.38-.04.88 0 1h-.12c-.75 0-1.5.6-1.5 1.73 0 .88.75 1.27 1.25 1.27h1.75l.25-1h-1.25c-.25 0-.75 0-.75-.43 0-.57.37-.57.75-.57h1.5l.37-1h-.62c-.17 0-.5-.2-.5-.5s.33-.5.5-.5zm1.01-1h1.62c1.13 0 1.54.73 1.63 1 .12.38.04.88 0 1h.12c.75 0 1.5.37 1.5 1.5 0 .88-.75 1.5-1.25 1.5h-3.75l-.25 1-1.13-.25zm.12 4h3c.25 0 .75 0 .75-.5s-.5-.5-.75-.5h-2.69zm.56-2h.94c.5 0 .75-.2.75-.5s-.25-.5-.75-.5h-.75z" fill="#b6985a"/></svg>

<!-- by TradingView --><svg width="18" height="18" viewBox="0 0 18 18" xmlns="http://www.w3.org/2000/svg"><path fill="#00543A" d="M0 0h18v18H0z"/><path d="m8.12 7 .25-1H7.25c-1.13 0-1.54.73-1.63 1-.12.38-.04.88 0 1H5.5C4.75 8 4 8.6 4 9.73c0 .88.75 1.27 1.25 1.27H7l.25-1H6c-.25 0-.75 0-.75-.43C5.25 9 5.62 9 6 9h1.5l.37-1h-.62c-.17 0-.5-.2-.5-.5s.33-.5.5-.5h.87ZM9.13 6h1.62c1.13 0 1.54.73 1.63 1 .12.38.04.88 0 1h.12c.75 0 1.5.37 1.5 1.5 0 .88-.75 1.5-1.25 1.5H9l-.25 1-1.13-.25L9.13 6Zm.12 4h3c.25 0 .75 0 .75-.5s-.5-.5-.75-.5H9.56l-.31 1Zm.56-2h.94c.5 0 .75-.2.75-.5s-.25-.5-.75-.5H10l-.19 1Z" fill="#B6985A"/></svg>
